X: 4
T: Roslyn Castle
R: reel
M: 4/4
L: 1/8
K: Emin
GF |: E2B>c B2AB | c>BAG F2GF |E2e>f g2fe | _e =ef_e B2AB |c>BAG F2GA | BGFE _e2=ef |gef_e =eBAB |1 GE F>_E =E2 GF :|2 GE F>_E =E3B ||| e2ef g2fe | b>aga f2e_e |=eBef g2fe | b>aga f2AB |c>BAG F2GA | BGFE _e2=ef |gef_e =eBAB |1 GE F>_E =E3B :|2 GE F>_E =E4 ||


Tune 4150	Setting 22834

